images_sukapura_svg/cmd/sc_redo.svg

<svg viewBox="0 0 16 16" xmlns="http://www.w3.org/2000/svg" xmlns:xlink="http://www.w3.org/1999/xlink"><linearGradient id="a" gradientUnits="userSpaceOnUse" x1="3.422874" x2="7.422874" y1="-3.422874" y2="9.577126"><stop offset="0" stop-color="#fff"/><stop offset="1" stop-color="#fff" stop-opacity="0"/></linearGradient>



     /&amp;amp;gt;
 <g fill="#0a84ff" transform="matrix(-.70710678 -.70710678 -.70710678 .70710678 20.24263962748 9.171573)"><path d="m6.2871094-.09570312a.49979081.49979081 0 0 0 -.3378906.14648437l-4.5957032 4.59570315a.49979081.49979081 0 0 0 0 .7070312l4.5957032 4.5957032a.49979081.49979081 0 0 0 .8535156-.3535157v-9.19140622a.49979081.49979081 0 0 0 -.515625-.5z" fill="#0a84ff"/><path d="m2 4v2h8a4 4 0 0 1 4 4 4 4 0 0 1 -4 4c-.554 0-1 .446-1 1s.446 1 1 1a6 6 0 0 0 6-6 6 6 0 0 0 -6-6z" fill="#0a84ff"/><path d="m9.8125 3.171875a6 6 0 0 0 -4.15625 1.7578125l-2.2597656 2.2597656-2.54296878-2.5429687a.49979081.49979081 0 0 0 -.71875.011719.49979081.49979081 0 0 0 -.13476562.3417966v5.585938.914062a.49979081.49979081 0 0 0 .1640625.369141c4.6321154-3.8653125 7.6213852-9.3066738 13.1152345-7.6484379a6 6 0 0 0 -3.466797-1.0488281z" fill="url(#a)" transform="matrix(.70710678 .70710678 -.70710678 .70710678 9.485281 -3.485281)"/></g></svg>

<?xml version="1.0" encoding="UTF-8" standalone="no"?>
<svg
   xmlns:dc="http://purl.org/dc/elements/1.1/"
   xmlns:cc="http://creativecommons.org/ns#"
   xmlns:rdf="http://www.w3.org/1999/02/22-rdf-syntax-ns#"
   xmlns:svg="http://www.w3.org/2000/svg"
   xmlns="http://www.w3.org/2000/svg"
   xmlns:xlink="http://www.w3.org/1999/xlink"
   xmlns:sodipodi="http://sodipodi.sourceforge.net/DTD/sodipodi-0.dtd"
   xmlns:inkscape="http://www.inkscape.org/namespaces/inkscape"
   viewBox="0 0 16 16"
   version="1.1"
   id="svg6"
   sodipodi:docname="sc_redo.svg"
   inkscape:version="0.92.3 (unknown)"
   inkscape:export-filename="/home/rizmut/Dokumen/Rizmut/Github/libreoffice-style-colibrex/images_colibrex/cmd/sc_redo.png"
   inkscape:export-xdpi="96"
   inkscape:export-ydpi="96"><metadata
   id="metadata12">
  <rdf:RDF>
    <cc:Work
       rdf:about="">
      <dc:format>image/svg+xml</dc:format>
      <dc:type
         rdf:resource="http://purl.org/dc/dcmitype/StillImage" />
      <dc:title></dc:title>
    </cc:Work>
  </rdf:RDF>
</metadata>
<defs
   id="defs10">
  <linearGradient
     gradientTransform="translate(-3.5771261,-5.4228744)"
     inkscape:collect="always"
     xlink:href="#linearGradient1391"
     id="linearGradient1393"
     x1="7"
     y1="2"
     x2="11"
     y2="15"
     gradientUnits="userSpaceOnUse" />
  <linearGradient
     inkscape:collect="always"
     id="linearGradient1391">
    <stop
       style="stop-color:#ffffff;stop-opacity:1;"
       offset="0"
       id="stop1387" />
    <stop
       style="stop-color:#ffffff;stop-opacity:0;"
       offset="1"
       id="stop1389" />
  </linearGradient>
</defs>
<sodipodi:namedview
   pagecolor="#ffffff"
   bordercolor="#666666"
   borderopacity="1"
   objecttolerance="10"
   gridtolerance="10"
   guidetolerance="10"
   inkscape:pageopacity="0"
   inkscape:pageshadow="2"
   inkscape:window-width="1366"
   inkscape:window-height="706"
   id="namedview8"
   showgrid="true"
   inkscape:snap-global="false"
   inkscape:zoom="32"
   inkscape:cx="8.0353311"
   inkscape:cy="4.5048132"
   inkscape:window-x="0"
   inkscape:window-y="0"
   inkscape:window-maximized="1"
   inkscape:current-layer="g834">
  <inkscape:grid
     type="xygrid"
     id="grid825"
     spacingx="0.5"
     spacingy="0.5"
     empspacing="2" />
</sodipodi:namedview>



     /&amp;gt;
 <g
   id="g834"
   style="fill:#0a84ff;fill-opacity:1"
   transform="rotate(-45,8.9497475,9.7071068)">
  <g
     id="g883"
     transform="matrix(0,-1,-1,0,17.313708,17.313708)">
    <path
       id="path2"
       d="M 6.2871094,-0.09570312 A 0.49979081,0.49979081 0 0 0 5.9492188,0.05078125 L 1.3535156,4.6464844 a 0.49979081,0.49979081 0 0 0 0,0.7070312 L 5.9492188,9.9492188 A 0.49979081,0.49979081 0 0 0 6.8027344,9.5957031 V 0.40429688 a 0.49979081,0.49979081 0 0 0 -0.515625,-0.5 z"
       style="fill:#0a84ff;fill-opacity:1;stroke:none"
       inkscape:connector-curvature="0" />
    <path
       inkscape:connector-curvature="0"
       style="fill:#0a84ff;fill-opacity:1"
       d="m 2,4 v 2 h 8 a 4,4 0 0 1 4,4 4,4 0 0 1 -4,4 c -0.554,0 -1,0.446 -1,1 0,0.554 0.446,1 1,1 a 6,6 0 0 0 6,-6 6,6 0 0 0 -6,-6 z"
       id="path4" />
    <path
       id="path1371"
       transform="rotate(45,8.9497475,9.7071068)"
       d="M 9.8125,3.171875 A 6,6 0 0 0 5.65625,4.9296875 L 3.3964844,7.1894531 0.85351562,4.6464844 a 0.49979081,0.49979081 0 0 0 -0.71875,0.011719 A 0.49979081,0.49979081 0 0 0 0,5 V 10.585938 11.5 a 0.49979081,0.49979081 0 0 0 0.1640625,0.369141 C 4.7961779,8.0038285 7.7854477,2.5624672 13.279297,4.2207031 A 6,6 0 0 0 9.8125,3.171875 Z"
       style="fill:url(#linearGradient1393);fill-opacity:1;stroke:none;stroke-width:1px;stroke-linecap:round;stroke-linejoin:round;stroke-opacity:0.5625"
       inkscape:connector-curvature="0" />
  </g>
</g>
</svg>
